X:6029
T:Ferry Boat, The
R:Jig
C:Trad. Thompson 1787
O:England
Z:Paul Hardy's Session Tunebook 2022 (see www.paulhardy.net). Creative Commons cc by-nc-sa licenced.
M:6/8
L:1/8
Q:3/8=100
K:D
"D"afd afd|"A"ecA ecA|"G"g2f "A"e2d|"A7" c2d e3|
"D"afd afd|"A"ecA ecA|"Em"g2f "A"e2d|"A7"edc "D"d3:|
|:"D"FAd FAd|"G"GBd GBd|"A"ABc "D"def|"A"e2d c2A|
"D"FAd FAd|"G"GBd GBd|"A"ABc "D"def|"A7"edc "D"d3:|

